papirus/32x32/apps/rubymine.svg

<svg height="32" viewBox="0 0 32 32.000001" width="32" xmlns="http://www.w3.org/2000/svg"><rect fill="#a24058" height="28" rx="1.4" transform="matrix(0 -1 -1 0 0 0)" width="28" x="-30" y="-30"/><path d="m7 24.971515v-10.8c0-3.5 3.1-4.2 4.5-4.2 1.4 0 4.50021.6 4.50021 4.1v10.9" style="opacity:.2;fill:none;stroke:#000;stroke-width:4;stroke-linecap:round;stroke-linejoin:round"/><path d="m7 24v-10.8c0-3.5 3.1-4.2 4.5-4.2 1.4 0 4.50021.6 4.50021 4.1v10.9" fill="none" stroke="#f58a1f" stroke-linecap="round" stroke-linejoin="round" stroke-width="4"/><path d="m20 9.971515c1.4 0 3.99979.5 4 4 .00021 3.5-3 4.4-3 4.4l3 6.6" style="opacity:.2;fill:none;stroke:#000;stroke-width:4;stroke-linecap:round;stroke-linejoin:round"/><path d="m20 9c1.4 0 3.99979.5 4 4 .00021 3.5-3 4.4-3 4.4l3 6.6" fill="none" stroke="#fff" stroke-linecap="round" stroke-linejoin="round" stroke-width="4"/><path d="m3.4003906 2c-.7756 0-1.4003906.6247906-1.4003906 1.4003906v1c0-.7756.6247906-1.4003906 1.4003906-1.4003906h25.1992184c.7756 0 1.400391.6247906 1.400391 1.4003906v-1c0-.7756-.624791-1.4003906-1.400391-1.4003906z" fill="#fff" opacity=".2"/><path d="m2 27.599609v1c0 .7756.6247906 1.400391 1.4003906 1.400391h25.1992184c.7756 0 1.400391-.624791 1.400391-1.400391v-1c0 .7756-.624791 1.400391-1.400391 1.400391h-25.1992184c-.7756 0-1.4003906-.624791-1.4003906-1.400391z" opacity=".3"/></svg>

<?xml version="1.0" encoding="UTF-8" standalone="no"?>
<!-- Created with Inkscape (http://www.inkscape.org/) -->

<svg
   xmlns:dc="http://purl.org/dc/elements/1.1/"
   xmlns:cc="http://creativecommons.org/ns#"
   xmlns:rdf="http://www.w3.org/1999/02/22-rdf-syntax-ns#"
   xmlns:svg="http://www.w3.org/2000/svg"
   xmlns="http://www.w3.org/2000/svg"
   xmlns:sodipodi="http://sodipodi.sourceforge.net/DTD/sodipodi-0.dtd"
   xmlns:inkscape="http://www.inkscape.org/namespaces/inkscape"
   id="svg4346"
   height="32"
   viewBox="0 0 32 32.000001"
   width="32"
   version="1.1"
   inkscape:version="0.91 r13725"
   sodipodi:docname="rubymine.svg">
  <defs
     id="defs13" />
  <sodipodi:namedview
     pagecolor="#ffffff"
     bordercolor="#666666"
     borderopacity="1"
     objecttolerance="10"
     gridtolerance="10"
     guidetolerance="10"
     inkscape:pageopacity="0"
     inkscape:pageshadow="2"
     inkscape:window-width="1600"
     inkscape:window-height="849"
     id="namedview11"
     showgrid="false"
     inkscape:zoom="1"
     inkscape:cx="27.405802"
     inkscape:cy="21.992064"
     inkscape:window-x="0"
     inkscape:window-y="0"
     inkscape:window-maximized="1"
     inkscape:current-layer="svg4346">
    <inkscape:grid
       type="xygrid"
       id="grid4154" />
  </sodipodi:namedview>
  <metadata
     id="metadata4351">
    <rdf:RDF>
      <cc:Work
         rdf:about="">
        <dc:format>image/svg+xml</dc:format>
        <dc:type
           rdf:resource="http://purl.org/dc/dcmitype/StillImage" />
        <dc:title></dc:title>
      </cc:Work>
    </rdf:RDF>
  </metadata>
  <rect
     id="rect4203"
     ry="1.4"
     rx="1.4"
     transform="matrix(0,-1,-1,0,0,0)"
     height="28"
     width="28"
     y="-30"
     x="-30"
     style="fill:#a24058;fill-opacity:1" />
  <path
     sodipodi:nodetypes="cszsc"
     inkscape:connector-curvature="0"
     id="path4310"
     d="m 7,24.971515 0,-10.8 c 0,-3.5 3.1,-4.2 4.5,-4.2 1.4,0 4.50021,0.6 4.50021,4.1 l 0,10.9"
     style="opacity:0.2;fill:none;fill-rule:evenodd;stroke:#000000;stroke-width:4;stroke-linecap:round;stroke-linejoin:round;stroke-miterlimit:4;stroke-dasharray:none;stroke-opacity:1" />
  <path
     style="fill:none;fill-rule:evenodd;stroke:#f58a1f;stroke-width:4;stroke-linecap:round;stroke-linejoin:round;stroke-miterlimit:4;stroke-dasharray:none;stroke-opacity:1"
     d="M 7,24 7,13.2 C 7,9.7 10.1,9 11.5,9 c 1.4,0 4.50021,0.6 4.50021,4.1 l 0,10.9"
     id="path4152"
     inkscape:connector-curvature="0"
     sodipodi:nodetypes="cszsc" />
  <path
     style="opacity:0.2;fill:none;fill-rule:evenodd;stroke:#000000;stroke-width:4;stroke-linecap:round;stroke-linejoin:round;stroke-miterlimit:4;stroke-dasharray:none;stroke-opacity:1"
     d="m 20,9.971515 c 1.4,0 3.99979,0.5 4,4 2.1e-4,3.5 -3,4.4 -3,4.4 l 3,6.6"
     id="path4312"
     inkscape:connector-curvature="0"
     sodipodi:nodetypes="czcc" />
  <path
     sodipodi:nodetypes="czcc"
     inkscape:connector-curvature="0"
     id="path4158"
     d="m 20,9 c 1.4,0 3.99979,0.5 4,4 2.1e-4,3.5 -3,4.4 -3,4.4 l 3,6.6"
     style="fill:none;fill-rule:evenodd;stroke:#ffffff;stroke-width:4;stroke-linecap:round;stroke-linejoin:round;stroke-miterlimit:4;stroke-dasharray:none;stroke-opacity:1" />
  <path
     style="fill:#ffffff;fill-opacity:1;opacity:0.2"
     d="M 3.4003906 2 C 2.6247906 2 2 2.6247906 2 3.4003906 L 2 4.4003906 C 2 3.6247906 2.6247906 3 3.4003906 3 L 28.599609 3 C 29.375209 3 30 3.6247906 30 4.4003906 L 30 3.4003906 C 30 2.6247906 29.375209 2 28.599609 2 L 3.4003906 2 z "
     id="rect4300" />
  <path
     style="fill:#000000;fill-opacity:1;opacity:0.3"
     d="M 2 27.599609 L 2 28.599609 C 2 29.375209 2.6247906 30 3.4003906 30 L 28.599609 30 C 29.375209 30 30 29.375209 30 28.599609 L 30 27.599609 C 30 28.375209 29.375209 29 28.599609 29 L 3.4003906 29 C 2.6247906 29 2 28.375209 2 27.599609 z "
     id="rect4305" />
</svg>
